icons/portfolio-filled.svg

<svg width="256" height="256" viewBox="0 0 256 256" fill="none" xmlns="http://www.w3.org/2000/svg">
<path d="M196 0H60C26.8629 0 0 26.8629 0 60V196C0 229.137 26.8629 256 60 256H196C229.137 256 256 229.137 256 196V60C256 26.8629 229.137 0 196 0Z" fill="#000B1D"/>
<path d="M61 183.8V81.5C61 80.8 61.3 80.4 62 80.4C63.7 80.4 65.8 80.4 68.1 80.3C70.4 80.2 73 80.2 75.7 80.1C78.4 80 81.3 80 84.4 79.9C87.5 79.8 90.5 79.8 93.5 79.8C101.7 79.8 108.5 80.8 114.1 82.9C119.12 84.6048 123.697 87.4059 127.5 91.1001C130.722 94.3329 133.212 98.2207 134.8 102.5C136.314 106.667 137.092 111.066 137.1 115.5C137.1 124.1 135.1 131.2 131.1 136.8C127.081 142.392 121.471 146.644 115 149C107.788 151.602 100.167 152.889 92.5 152.8C90.1 152.8 88.5 152.8 87.5 152.7C86.5 152.6 84.7 152.9 82.8 152.9V184.1C82.8223 184.265 82.8114 184.432 82.7678 184.592C82.7242 184.752 82.6489 184.902 82.5463 185.033C82.4437 185.163 82.3159 185.272 82.1705 185.352C82.0252 185.433 81.8652 185.483 81.7 185.5H81.3L62.1 185.2C61.4 185.1 61 184.7 61 183.8ZM82.8 100V133.3C84.2 133.4 85.9 133.2 87.1 133.2H92.4C96.2935 133.272 100.174 132.732 103.9 131.6C107.088 130.663 109.936 128.822 112.1 126.3C114.2 123.8 115.2 120.4 115.2 116C115.294 112.875 114.496 109.788 112.9 107.1C111.233 104.504 108.78 102.507 105.9 101.4C102.146 99.9297 98.129 99.2489 94.1 99.4C91.5 99.4 89.2 99.4 87.3 99.5C85.7872 99.5183 84.2799 99.6858 82.8 100Z" fill="white"/>
<path d="M158 124.2H148.1C147.3 124.1 147 123.7 147 123.1V106.6C146.97 106.35 147.036 106.097 147.184 105.893C147.333 105.689 147.553 105.549 147.8 105.5H158V103.2C157.968 99.8163 158.236 96.4365 158.8 93.1C159.317 90.2999 160.19 87.5777 161.4 85C163.496 80.6746 166.663 76.9568 170.6 74.2C174.6 71.4 179.8 70 186.4 70C188 70 189.5 70.1 191.1 70.2C192.374 70.2977 193.624 70.6017 194.8 71.1C195.132 71.2121 195.418 71.4285 195.616 71.7169C195.815 72.0054 195.914 72.3503 195.9 72.7V88.6C195.9 89.4 195.5 89.6 194.6 89.4C193.805 89.2837 193.003 89.217 192.2 89.2H189.8C188.037 89.1586 186.289 89.5355 184.7 90.3C183.184 91.1074 182.038 92.4685 181.5 94.1C180.521 96.3789 179.979 98.8211 179.9 101.3V105.4H193.5C193.923 105.35 194.35 105.456 194.7 105.7C194.807 105.84 194.881 106.004 194.916 106.177C194.95 106.35 194.945 106.529 194.9 106.7V123.1C194.9 123.9 194.4 124.2 193.5 124.2H179.9V183.7C179.882 184.041 179.814 184.378 179.7 184.7C179.558 184.877 179.373 185.015 179.164 185.103C178.954 185.19 178.726 185.223 178.5 185.2H159.4C158.5 185.2 158.1 184.7 158.1 183.8V124.2H158Z" fill="white"/>
</svg>

<svg xmlns="http://www.w3.org/2000/svg" width="256" height="256" fill="none"><path fill="#000B1D" d="M196 0H60C26.863 0 0 26.863 0 60v136c0 33.137 26.863 60 60 60h136c33.137 0 60-26.863 60-60V60c0-33.137-26.863-60-60-60"/><path fill="#fff" d="M61 183.8V81.5c0-.7.3-1.1 1-1.1 1.7 0 3.8 0 6.1-.1s4.9-.1 7.6-.2 5.6-.1 8.7-.2 6.1-.1 9.1-.1c8.2 0 15 1 20.6 3.1a35.7 35.7 0 0 1 13.4 8.2 31.8 31.8 0 0 1 7.3 11.4 38.3 38.3 0 0 1 2.3 13q0 12.9-6 21.3A34.26 34.26 0 0 1 115 149a64.1 64.1 0 0 1-22.5 3.8c-2.4 0-4 0-5-.1s-2.8.2-4.7.2v31.2a1.24 1.24 0 0 1-1.1 1.4h-.4l-19.2-.3c-.7-.1-1.1-.5-1.1-1.4M82.8 100v33.3c1.4.1 3.1-.1 4.3-.1h5.3a37.2 37.2 0 0 0 11.5-1.6 17.2 17.2 0 0 0 8.2-5.3c2.1-2.5 3.1-5.9 3.1-10.3a16.46 16.46 0 0 0-2.3-8.9 14.5 14.5 0 0 0-7-5.7 29.3 29.3 0 0 0-11.8-2c-2.6 0-4.9 0-6.8.1a23 23 0 0 0-4.5.5m75.2 24.2h-9.9c-.8-.1-1.1-.5-1.1-1.1v-16.5a1 1 0 0 1 .8-1.1H158v-2.3a57.3 57.3 0 0 1 .8-10.1c.517-2.8 1.39-5.522 2.6-8.1a28.2 28.2 0 0 1 9.2-10.8c4-2.8 9.2-4.2 15.8-4.2 1.6 0 3.1.1 4.7.2 1.274.098 2.524.402 3.7.9a1.62 1.62 0 0 1 1.1 1.6v15.9c0 .8-.4 1-1.3.8a19 19 0 0 0-2.4-.2h-2.4a11.16 11.16 0 0 0-5.1 1.1 6.67 6.67 0 0 0-3.2 3.8 19.8 19.8 0 0 0-1.6 7.2v4.1h13.6c.423-.05.85.056 1.2.3a1.17 1.17 0 0 1 .2 1v16.4c0 .8-.5 1.1-1.4 1.1h-13.6v59.5a3.6 3.6 0 0 1-.2 1 1.37 1.37 0 0 1-1.2.5h-19.1c-.9 0-1.3-.5-1.3-1.4v-59.6z"/></svg>
